Freeze95/resources/cloph-logo-highlight.svg

<svg xmlns="http://www.w3.org/2000/svg" viewBox="294.15 84.3 1461.67 569"><path fill="#eee4c7" d="M1256.13 198.447a162.18 162.18 0 0 1 111.06 41.283c33.89 29.926 55.78 75.595 58.56 120.675a169.07 169.07 0 0 1-42.1 122.893c-50.59 57.167-132.05 76.066-200.5 39.404-15.1-8.086-26.95-17.493-39.72-28.796-.59 12.339-.16 28.004-.17 40.594.74 39.248.47 79.457.63 118.797l-55.71-.062-.12-448.985c18.1-.316 37.29.053 55.46.099l-.07 42.286c29.09-29.84 71.33-46.236 112.68-48.188m6.38 288.673c64.62-2.577 114.91-57.047 112.34-121.666-2.57-64.618-57.04-114.917-121.66-112.349s-114.93 57.041-112.35 121.666c2.57 64.625 57.05 114.927 121.67 112.349"/><path fill="#eee4c7" d="M1255 280.111c3.41-.123 7.34-.042 10.34 1.775a10.93 10.93 0 0 1 4.98 7.055c2.55 12.398 1.44 55.562 1.6 70.089-.07 28.915.41 57.867-.27 86.773-.21 9.076-3.39 10.913-10.81 14.449a23.2 23.2 0 0 1-5.87-.824c-3.08-.825-6.69-2.391-8.26-5.36-2.55-4.794-2.54-131.681-2.15-146.395.16-6.235.01-14.392 2.05-20.264 1.5-4.282 4.56-5.55 8.39-7.298m-46.14 42.005c3.64-.258 13.61-.274 15.06 4.074 8.28 24.903 4.65 55.827 3.91 82.009-.14 4.743-3.94 7.389-7.34 9.895-11.69.293-17.66.132-18.82-13.584-1.96-22.952-1.71-46.404-.49-69.401.39-7.404 2.38-8.553 7.68-12.993m90.84.059c2.44.226 4.88.561 7.2 1.37 3.1 1.079 5.49 3.643 6.81 6.606 4.56 10.262 3.59 68.837-.78 79.625-1.79 4.431-3.98 6.668-8.34 8.556-2.96-.113-6.36-.401-8.99-1.841-3.31-1.814-4.78-4.881-5.78-8.367-3.86-13.392-4.01-69.533 2.59-81.042 1.83-3.183 3.83-3.984 7.29-4.907m-134.55 29.941c25.58-2.604 25.67 25.422 11.17 36.498-23.32 2.978-25.12-26.266-11.17-36.498m175.64-.108c22.95-.577 24.83 24.254 8.58 36.261-6.44-.249-12.1-1.659-16.07-7.186a17.87 17.87 0 0 1-3.02-13.511c1.19-7.024 4.97-11.599 10.51-15.564M885.807 198.677c94.5-5.669 175.763 66.221 181.653 160.708s-65.81 175.914-160.281 182.029c-94.789 6.135-176.549-65.855-182.46-160.658s66.272-176.392 161.088-182.079m25.722 296.202c69.124-8.41 118.261-71.379 109.621-140.475-8.64-69.097-71.771-118.026-140.838-109.155-68.742 8.83-117.39 71.6-108.79 140.371s71.207 117.629 140.007 109.259"/><path fill="#eee4c7" d="M891.734 261.068c9.721-.434 11.492 1.36 17.518 8.309 2.222 30.261.911 71.452.897 102.609-.012 27.858 1.618 72.076-.81 98.871-3.444 4.025-4.847 5.16-9.058 8.397a97 97 0 0 1-3.402-.336c-13.202-1.557-14.455-9.009-14.627-20.8-.806-57.394-.533-114.85-.111-172.252.095-12.978-1.354-17.024 9.593-24.798m43.631 43.107c2.739-.209 5.525-.212 8.245.221 3.128.497 6.208 2.06 7.995 4.741 6.818 10.231 4.241 102.409 1.428 117.567-.954 5.139-2.142 7.534-6.565 10.586a29.5 29.5 0 0 1-4.19.289c-4.201-.035-9.333-1.763-12.202-4.881-5.617-6.103-3.562-103.771-2.647-119.855 3.027-4.387 3.803-5.289 7.936-8.668m-88.531-.197q.524.006 1.047.024c9.555.273 17.097 2.433 17.4 13.204 1.025 36.471 1.701 76.117.019 112.356-2.785 3.29-4.844 4.866-8.139 7.569-1.835.105-3.661.147-5.495-.001-4.227-.34-7.931-1.485-10.679-4.903-4.289-5.334-4.002-103.546-2.572-116.076.665-5.825 4.168-8.712 8.419-12.173m134.396 39.843c25.51-2.261 24.39 41.627 9.341 53.838-20.699 2.564-20.184-21.835-18.718-35.761.893-8.484 2.626-12.848 9.377-18.077m-178.992.086c20.418-1.167 19.503 21.749 18.346 36.431-.614 7.802-3.578 12.187-9.759 16.737-20.279 2.73-19.704-21.365-18.59-35.185.649-8.055 3.606-13.164 10.003-17.983M1446.11 85.313l55.45.016c.71 52.304.24 105.148.57 157.559 29.58-28.244 61.67-44.612 103.6-44.737A149.08 149.08 0 0 1 1712 242.53a145.1 145.1 0 0 1 37.35 63.41c8.05 29.349 6.04 79.101 6.12 111.138l.32 120.672c-17.75.376-36.77.035-54.61.044.24-64.328.11-128.656-.38-192.982-1.79-26.145-8.11-45.456-26.51-64.953-51.72-54.957-155.28-29.362-169.75 46.607-4.73 24.835-3.1 53.036-3.11 78.527l.32 132.724c-18.65.359-37.3.11-55.93-.746 1.61-20.675.89-45.293.76-66.346l-.44-106.29.46-167.107c.13-36.613.99-75.588-.49-111.915m-984.365 113.11c19.066-2.024 44.574 4.167 62.294 11.627 48.615 20.465 91.842 65.274 100.73 118.622l-54.086-.111c-5.799-15.115-11.841-27.009-22.733-39.313a108.9 108.9 0 0 0-76.034-36.837c-30.815-1.854-60.272 6.62-83.543 27.294a118.25 118.25 0 0 0-39.47 80.937c-6.135 108.833 113.046 168.035 194.1 95.08 15.008-15.295 22.757-28.909 27.522-49.751 17.75-.28 37.759-.58 55.392.369-3.402 27.333-17.805 55.321-35.65 76.166a169.96 169.96 0 0 1-115.294 58.215 163.92 163.92 0 0 1-119.537-40.237 175.05 175.05 0 0 1-60.807-119.496c-3.249-43.665 11.225-89.315 39.941-122.473 34.749-40.125 75.306-56.331 127.175-60.092M645.508 84.326c17.854.525 36.439.298 54.366.307a22331 22331 0 0 1-.036 347.834c-.054 36.149-2.421 55.853 39.264 55.561-.228 9.76 1.204 43.492-.256 49.94-28.012.415-49.097.366-70.521-20.44-24.736-24.024-23.286-53.386-23.31-84.754l.488-69.465-.375-154.246c.171-41.618 1.347-83.087.38-124.737"/><path fill="#eee4c7" d="M1619.04 280.167c6.23-.695 12.51-.107 16.32 5.564 1.35 2.013 2.3 3.719 2.36 6.216.28 12.5.27 25.012.28 37.515.03 25.457-.13 50.913-.47 76.367-.18 14.259-.19 30.176-.81 44.485-.17 3.979-4.79 7.21-7.87 9.386-22.49 2.048-18.75-16.258-18.7-32.634.14-46.593-.77-93.489.43-140.047 2.32-2.277 5.83-4.82 8.46-6.852m-1159.454-.081c15.223-1.392 17.912 5.199 18.144 18.707.848 49.365.351 98.796.425 148.169.008 5.685-4.281 9.244-8.142 12.709-8.279 1.181-17.606-1.046-18.191-11.013-.993-16.93-.68-34.227-.771-51.228q-.36-54.365.145-108.728c3.13-4.34 4.212-5.243 8.39-8.616m42.177 42.146c14.31-.458 20.637 5.142 19.989 20.147-.808 18.719 5.107 61.443-7.471 75.282-4.29.36-16.089.83-17.282-5.026-5.211-25.579-3.323-54.796-2.73-80.987.096-4.256 4.446-7.197 7.494-9.416m-85.868-.04c23.318-3.003 19.648 21.056 19.924 38.396.241 15.123 3.786 48.804-8.233 57.33-2.408.188-4.893.423-7.307.302-3.427-.172-6.826-1.604-9.043-4.299-5.149-6.258-4.039-69.966-2.922-80.791.561-5.44 3.616-7.739 7.581-10.938m1159.065-.093c2.61-.223 5.24-.188 7.84.105 2.39.28 6.24 1.804 7.09 3.618 6.3 13.46 4.79 71.829 3.29 85.149-2.9 3.165-4.77 4.537-8.1 7.095-4.5.209-14.48-.313-15.7-5.972-5.42-25.224-3.7-54.357-2.49-80.204.23-4.821 4.53-7.454 8.07-9.791m87.9 28.011c1.1-.015 2.21.012 3.31.078 19.58 1.289 20.28 27.197 5.71 39.389-14.26-.462-20.42-7.735-19.25-23.352.52-6.985 4.63-12.047 10.23-16.115m-131.08.93.31-.008c22.7-.441 24.05 25.328 9.98 38.334-25.24-1.379-27.37-26.775-10.29-38.326m-1157.334.963c20.519-3.363 26.916 27.548 6.278 37.187-.944-.021-1.788-.061-2.727-.194a17.4 17.4 0 0 1-11.453-6.921c-7.75-10.652-1.784-23.183 7.902-30.072m172.509-.089c21.301.623 24.185 22.327 8.99 35.642-22.129 1.543-24.041-22.372-8.99-35.642m56.319 3.65c7.914-1.747 15.774 3.149 17.695 11.022s-2.8 15.84-10.629 17.935a14.908 14.908 0 0 1-18.131-18.686 14.91 14.91 0 0 1 11.065-10.271"/></svg>

<svg xmlns="http://www.w3.org/2000/svg" xmlns:xlink="http://www.w3.org/1999/xlink" viewBox="294.15 84.3 1461.67 569"><path fill="#EEE4C7" d="M1256.13 198.447C1297.03 197.708 1336.7 212.454 1367.19 239.73C1401.08 269.656 1422.97 315.325 1425.75 360.405C1428.64 405.342 1413.49 449.573 1383.65 483.298C1333.06 540.465 1251.6 559.364 1183.15 522.702C1168.05 514.616 1156.2 505.209 1143.43 493.906C1142.84 506.245 1143.27 521.91 1143.26 534.5C1144 573.748 1143.73 613.957 1143.89 653.297L1088.18 653.235L1088.06 204.25C1106.16 203.934 1125.35 204.303 1143.52 204.349L1143.45 246.635C1172.54 216.795 1214.78 200.399 1256.13 198.447ZM1262.51 487.12C1327.13 484.543 1377.42 430.073 1374.85 365.454C1372.28 300.836 1317.81 250.537 1253.19 253.105C1188.57 255.673 1138.26 310.146 1140.84 374.771C1143.41 439.396 1197.89 489.698 1262.51 487.12Z"/><path fill="#EEE4C7" d="M1255 280.111C1258.41 279.988 1262.34 280.069 1265.34 281.886C1267.9 283.457 1269.7 286.006 1270.32 288.941C1272.87 301.339 1271.76 344.503 1271.92 359.03C1271.85 387.945 1272.33 416.897 1271.65 445.803C1271.44 454.879 1268.26 456.716 1260.84 460.252C1258.82 460.228 1256.93 459.955 1254.97 459.428C1251.89 458.603 1248.28 457.037 1246.71 454.068C1244.16 449.274 1244.17 322.387 1244.56 307.673C1244.72 301.438 1244.57 293.281 1246.61 287.409C1248.11 283.127 1251.17 281.859 1255 280.111Z"/><path fill="#EEE4C7" d="M1208.86 322.116C1212.5 321.858 1222.47 321.842 1223.92 326.19C1232.2 351.093 1228.57 382.017 1227.83 408.199C1227.69 412.942 1223.89 415.588 1220.49 418.094C1208.8 418.387 1202.83 418.226 1201.67 404.51C1199.71 381.558 1199.96 358.106 1201.18 335.109C1201.57 327.705 1203.56 326.556 1208.86 322.116Z"/><path fill="#EEE4C7" d="M1299.7 322.175C1302.14 322.401 1304.58 322.736 1306.9 323.545C1310 324.624 1312.39 327.188 1313.71 330.151C1318.27 340.413 1317.3 398.988 1312.93 409.776C1311.14 414.207 1308.95 416.444 1304.59 418.332C1301.63 418.219 1298.23 417.931 1295.6 416.491C1292.29 414.677 1290.82 411.61 1289.82 408.124C1285.96 394.732 1285.81 338.591 1292.41 327.082C1294.24 323.899 1296.24 323.098 1299.7 322.175Z"/><path fill="#EEE4C7" d="M1165.15 352.116C1190.73 349.512 1190.82 377.538 1176.32 388.614C1153 391.592 1151.2 362.348 1165.15 352.116Z"/><path fill="#EEE4C7" d="M1340.79 352.008C1363.74 351.431 1365.62 376.262 1349.37 388.269C1342.93 388.02 1337.27 386.61 1333.3 381.083C1330.52 377.168 1329.43 372.299 1330.28 367.572C1331.47 360.548 1335.25 355.973 1340.79 352.008Z"/><path fill="#EEE4C7" d="M885.807 198.677C980.307 193.008 1061.57 264.898 1067.46 359.385C1073.35 453.871 1001.65 535.299 907.179 541.414C812.39 547.549 730.63 475.559 724.719 380.756C718.807 285.953 790.991 204.364 885.807 198.677ZM911.529 494.879C980.653 486.469 1029.79 423.5 1021.15 354.404C1012.51 285.307 949.379 236.378 880.312 245.249C811.57 254.079 762.922 316.849 771.522 385.62C780.122 454.391 842.729 503.249 911.529 494.879Z"/><path fill="#EEE4C7" d="M891.734 261.068C901.455 260.634 903.226 262.428 909.252 269.377C911.474 299.638 910.163 340.829 910.149 371.986C910.137 399.844 911.767 444.062 909.339 470.857C905.895 474.882 904.492 476.017 900.281 479.254C899.145 479.162 898.011 479.05 896.879 478.918C883.677 477.361 882.424 469.909 882.252 458.118C881.446 400.724 881.719 343.268 882.141 285.866C882.236 272.888 880.787 268.842 891.734 261.068Z"/><path fill="#EEE4C7" d="M935.365 304.175C938.104 303.966 940.89 303.963 943.61 304.396C946.738 304.893 949.818 306.456 951.605 309.137C958.423 319.368 955.846 411.546 953.033 426.704C952.079 431.843 950.891 434.238 946.468 437.29C945.08 437.486 943.68 437.582 942.278 437.579C938.077 437.544 932.945 435.816 930.076 432.698C924.459 426.595 926.514 328.927 927.429 312.843C930.456 308.456 931.232 307.554 935.365 304.175Z"/><path fill="#EEE4C7" d="M846.834 303.978C847.183 303.982 847.532 303.99 847.881 304.002C857.436 304.275 864.978 306.435 865.281 317.206C866.306 353.677 866.982 393.323 865.3 429.562C862.515 432.852 860.456 434.428 857.161 437.131C855.326 437.236 853.5 437.278 851.666 437.13C847.439 436.79 843.735 435.645 840.987 432.227C836.698 426.893 836.985 328.681 838.415 316.151C839.08 310.326 842.583 307.439 846.834 303.978Z"/><path fill="#EEE4C7" d="M981.23 343.821C1006.74 341.56 1005.62 385.448 990.571 397.659C969.872 400.223 970.387 375.824 971.853 361.898C972.746 353.414 974.479 349.05 981.23 343.821Z"/><path fill="#EEE4C7" d="M802.238 343.907C822.656 342.74 821.741 365.656 820.584 380.338C819.97 388.14 817.006 392.525 810.825 397.075C790.546 399.805 791.121 375.71 792.235 361.89C792.884 353.835 795.841 348.726 802.238 343.907Z"/><path fill="#EEE4C7" d="M1446.11 85.3129L1501.56 85.3287C1502.27 137.633 1501.8 190.477 1502.13 242.888C1531.71 214.644 1563.8 198.276 1605.73 198.151C1645.67 198.112 1683.95 214.1 1712 242.53C1729.69 260.106 1742.56 281.945 1749.35 305.94C1757.4 335.289 1755.39 385.041 1755.47 417.078L1755.79 537.75C1738.04 538.126 1719.02 537.785 1701.18 537.794C1701.42 473.466 1701.29 409.138 1700.8 344.812C1699.01 318.667 1692.69 299.356 1674.29 279.859C1622.57 224.902 1519.01 250.497 1504.54 326.466C1499.81 351.301 1501.44 379.502 1501.43 404.993L1501.75 537.717C1483.1 538.076 1464.45 537.827 1445.82 536.971C1447.43 516.296 1446.71 491.678 1446.58 470.625L1446.14 364.335L1446.6 197.228C1446.73 160.615 1447.59 121.64 1446.11 85.3129Z"/><path fill="#EEE4C7" d="M461.745 198.423C480.811 196.399 506.319 202.59 524.039 210.05C572.654 230.515 615.881 275.324 624.769 328.672L570.683 328.561C564.884 313.446 558.842 301.552 547.95 289.248C528.596 267.236 501.186 253.956 471.916 252.411C441.101 250.557 411.644 259.031 388.373 279.705C365.057 300.422 350.87 329.513 348.903 360.642C342.768 469.475 461.949 528.677 543.003 455.722C558.011 440.427 565.76 426.813 570.525 405.971C588.275 405.691 608.284 405.391 625.917 406.34C622.515 433.673 608.112 461.661 590.267 482.506C560.993 516.326 519.568 537.243 474.973 540.721C431.356 543.789 388.32 529.303 355.436 500.484C320.111 470.3 298.236 427.311 294.629 380.988C291.38 337.323 305.854 291.673 334.57 258.515C369.319 218.39 409.876 202.184 461.745 198.423Z"/><path fill="#EEE4C7" d="M645.508 84.3262C663.362 84.851 681.947 84.6243 699.874 84.6332C700.765 200.576 700.753 316.524 699.838 432.467C699.784 468.616 697.417 488.32 739.102 488.028C738.874 497.788 740.306 531.52 738.846 537.968C710.834 538.383 689.749 538.334 668.325 517.528C643.589 493.504 645.039 464.142 645.015 432.774L645.503 363.309L645.128 209.063C645.299 167.445 646.475 125.976 645.508 84.3262Z"/><path fill="#EEE4C7" d="M1619.04 280.167C1625.27 279.472 1631.55 280.06 1635.36 285.731C1636.71 287.744 1637.66 289.45 1637.72 291.947C1638 304.447 1637.99 316.959 1638 329.462C1638.03 354.919 1637.87 380.375 1637.53 405.829C1637.35 420.088 1637.34 436.005 1636.72 450.314C1636.55 454.293 1631.93 457.524 1628.85 459.7C1606.36 461.748 1610.1 443.442 1610.15 427.066C1610.29 380.473 1609.38 333.577 1610.58 287.019C1612.9 284.742 1616.41 282.199 1619.04 280.167Z"/><path fill="#EEE4C7" d="M459.586 280.086C474.809 278.694 477.498 285.285 477.73 298.793C478.578 348.158 478.081 397.589 478.155 446.962C478.163 452.647 473.874 456.206 470.013 459.671C461.734 460.852 452.407 458.625 451.822 448.658C450.829 431.728 451.142 414.431 451.051 397.43C450.811 361.187 450.86 324.943 451.196 288.702C454.326 284.362 455.408 283.459 459.586 280.086Z"/><path fill="#EEE4C7" d="M501.763 322.232C516.073 321.774 522.4 327.374 521.752 342.379C520.944 361.098 526.859 403.822 514.281 417.661C509.991 418.021 498.192 418.491 496.999 412.635C491.788 387.056 493.676 357.839 494.269 331.648C494.365 327.392 498.715 324.451 501.763 322.232Z"/><path fill="#EEE4C7" d="M415.895 322.192C439.213 319.189 435.543 343.248 435.819 360.588C436.06 375.711 439.605 409.392 427.586 417.918C425.178 418.106 422.693 418.341 420.279 418.22C416.852 418.048 413.453 416.616 411.236 413.921C406.087 407.663 407.197 343.955 408.314 333.13C408.875 327.69 411.93 325.391 415.895 322.192Z"/><path fill="#EEE4C7" d="M1574.96 322.099C1577.57 321.876 1580.2 321.911 1582.8 322.204C1585.19 322.484 1589.04 324.008 1589.89 325.822C1596.19 339.282 1594.68 397.651 1593.18 410.971C1590.28 414.136 1588.41 415.508 1585.08 418.066C1580.58 418.275 1570.6 417.753 1569.38 412.094C1563.96 386.87 1565.68 357.737 1566.89 331.89C1567.12 327.069 1571.42 324.436 1574.96 322.099Z"/><path fill="#EEE4C7" d="M1662.86 350.11C1663.96 350.095 1665.07 350.122 1666.17 350.188C1685.75 351.477 1686.45 377.385 1671.88 389.577C1657.62 389.115 1651.46 381.842 1652.63 366.225C1653.15 359.24 1657.26 354.178 1662.86 350.11Z"/><path fill="#EEE4C7" d="M1531.78 351.04L1532.09 351.032C1554.79 350.591 1556.14 376.36 1542.07 389.366C1516.83 387.987 1514.7 362.591 1531.78 351.04Z"/><path fill="#EEE4C7" d="M374.446 352.003C394.965 348.64 401.362 379.551 380.724 389.19C379.78 389.169 378.936 389.129 377.997 388.996C373.409 388.307 369.287 385.815 366.544 382.075C358.794 371.423 364.76 358.892 374.446 352.003Z"/><path fill="#EEE4C7" d="M546.955 351.914C568.256 352.537 571.14 374.241 555.945 387.556C533.816 389.099 531.904 365.184 546.955 351.914Z"/><path fill="#EEE4C7" d="M603.274 355.564C611.188 353.817 619.048 358.713 620.969 366.586C622.89 374.46 618.169 382.426 610.34 384.521C605.119 385.918 599.551 384.379 595.788 380.501C592.025 376.622 590.656 371.011 592.209 365.835C593.763 360.659 597.996 356.729 603.274 355.564Z"/></svg>
